public/images/footer/xz.svg

<svg width="37" height="37" viewBox="0 0 37 37" fill="none" xmlns="http://www.w3.org/2000/svg">
<rect x="1" y="1" width="35" height="35" rx="17.5" stroke="white"/>
<path fill-rule="evenodd" clip-rule="evenodd" d="M18 27C22.4183 27 26 23.4183 26 19C26 14.5817 22.4183 11 18 11C13.5817 11 10 14.5817 10 19C10 23.4183 13.5817 27 18 27ZM19.7351 25.5249C19.1814 25.6718 18.5999 25.75 18 25.75C17.0922 25.75 16.2263 25.5708 15.4356 25.2458C16.1859 22.4765 18.2606 20.4931 20.6373 19.6097C21.0495 21.6074 20.7424 23.7498 19.7351 25.5249ZM21.5117 24.7657C22.1563 23.01 22.2833 21.0761 21.8882 19.2526C22.842 19.06 23.8149 19.0423 24.7465 19.2181C24.6719 21.5686 23.3956 23.6159 21.5117 24.7657ZM24.6588 17.888C23.6274 17.7367 22.5654 17.7809 21.5283 18.0024C21.3274 17.4387 21.0737 16.8956 20.7716 16.3799C21.624 15.8876 22.4012 15.2658 23.0666 14.5399C23.8823 15.4657 24.4481 16.6168 24.6588 17.888ZM22.1196 13.6525C21.5194 14.3096 20.8133 14.8684 20.0388 15.304C19.516 14.6395 18.9112 14.0413 18.2369 13.5276L18.2206 13.5152L18.2037 13.504C18.2036 13.5039 18.2022 13.5029 18.1991 13.5008C18.1955 13.4982 18.1907 13.4948 18.1845 13.4903C18.1721 13.4813 18.1567 13.4698 18.1382 13.456C18.1171 13.4403 18.0961 13.4244 18.0734 13.4073L18.0688 13.4038C18.0505 13.39 18.0311 13.3753 18.0099 13.3594C17.9639 13.3248 17.9135 13.2872 17.8672 13.2541C17.8349 13.2309 17.7884 13.1981 17.7409 13.1692L17.7107 13.1483C17.649 13.1055 17.5561 13.0412 17.4718 12.9894C17.393 12.9342 17.2866 12.8713 17.2168 12.8305C17.1493 12.7909 17.0767 12.7495 17.0315 12.7237L16.9969 12.7039C16.9886 12.699 16.9813 12.695 16.9783 12.6933L16.9778 12.693C16.9725 12.6901 16.9667 12.6869 16.9614 12.684L16.9543 12.6801C16.9442 12.6745 16.9342 12.669 16.9237 12.6631C16.9117 12.6565 16.902 12.651 16.8949 12.6468L16.89 12.6434L16.8728 12.6329C16.8105 12.5948 16.7455 12.56 16.7103 12.5412L16.6973 12.5342L16.6822 12.5261L16.6667 12.5188C16.6333 12.503 16.5825 12.4788 16.5254 12.4515L16.524 12.4509C16.5061 12.4424 16.4874 12.4335 16.4686 12.4245C16.9606 12.3103 17.4733 12.25 18 12.25C19.551 12.25 20.9798 12.7731 22.1196 13.6525ZM14.6908 13.1154C13.6896 13.6797 12.8469 14.492 12.2461 15.469C12.9608 15.8315 13.7285 16.0876 14.5193 16.2284L14.521 16.2287L14.5227 16.2291C15.5 16.4084 16.5075 16.4036 17.4938 16.2258C17.9463 16.1441 18.3907 16.0226 18.8219 15.8649C18.4166 15.3855 17.9614 14.9506 17.4634 14.5698C17.4293 14.5461 17.3915 14.5181 17.3606 14.4949C17.3372 14.4774 17.3097 14.4567 17.2826 14.4362L17.2819 14.4357C17.2639 14.4221 17.2461 14.4087 17.2298 14.3965C17.1853 14.363 17.1448 14.3328 17.1113 14.3088C17.0895 14.2932 17.077 14.2848 17.0718 14.2813C17.0699 14.28 17.069 14.2794 17.0691 14.2794L17.0499 14.2686L17.0274 14.2533C16.9942 14.2308 16.9647 14.2104 16.9377 14.1917L16.9374 14.1915C16.8781 14.1505 16.8306 14.1176 16.7824 14.089L16.7508 14.0702L16.7223 14.0487C16.7232 14.0493 16.7227 14.049 16.7206 14.0476L16.7203 14.0474C16.7153 14.0441 16.702 14.0352 16.6775 14.02C16.6445 13.9996 16.6041 13.9755 16.5609 13.9502C16.4997 13.9143 16.4439 13.8825 16.3998 13.8573L16.3946 13.8543C16.3761 13.8438 16.3599 13.8345 16.3463 13.8267L16.3449 13.8259L16.3343 13.82L16.3292 13.8172C16.3192 13.8117 16.3058 13.8044 16.2922 13.7968C16.2762 13.7879 16.2569 13.777 16.2381 13.766C16.2278 13.76 16.2086 13.7487 16.1871 13.7347C16.1606 13.719 16.1323 13.7037 16.0985 13.6856L16.097 13.6848C16.0567 13.6657 16.0064 13.6417 15.9531 13.6163C15.8527 13.5684 15.7414 13.5154 15.6641 13.4794L15.6558 13.4755L15.6209 13.4581C15.4985 13.4013 15.352 13.3458 15.1879 13.2836L15.1873 13.2834C15.1516 13.2698 15.1151 13.256 15.0777 13.2417C14.9765 13.2054 14.8714 13.1723 14.7614 13.1377L14.7611 13.1376C14.7379 13.1303 14.7145 13.1229 14.6908 13.1154ZM11.676 16.6349C12.4996 17.0505 13.3821 17.3438 14.29 17.5056C15.4266 17.714 16.5911 17.7071 17.7243 17.5027C18.3694 17.3863 18.9991 17.2008 19.6029 16.9536C19.8717 17.4004 20.0977 17.8712 20.2776 18.36C17.5662 19.3366 15.2001 21.5431 14.2643 24.6229C12.4473 23.4133 11.25 21.3465 11.25 19C11.25 18.1679 11.4006 17.3709 11.676 16.6349Z" fill="white"/>
</svg>

<svg xmlns="http://www.w3.org/2000/svg" width="37" height="37" fill="none"><rect width="35" height="35" x="1" y="1" stroke="#fff" rx="17.5"/><path fill="#fff" fill-rule="evenodd" d="M18 27a8 8 0 1 0 0-16 8 8 0 0 0 0 16m1.735-1.475A6.8 6.8 0 0 1 18 25.75a6.7 6.7 0 0 1-2.564-.504c.75-2.77 2.825-4.753 5.201-5.636.412 1.997.105 4.14-.902 5.915m1.777-.76a9.97 9.97 0 0 0 .376-5.512 7.5 7.5 0 0 1 2.858-.035 6.75 6.75 0 0 1-3.234 5.548m3.147-6.877a8.9 8.9 0 0 0-3.13.114 9.6 9.6 0 0 0-.757-1.622 9.7 9.7 0 0 0 2.295-1.84 6.73 6.73 0 0 1 1.592 3.348m-2.54-4.236a8.4 8.4 0 0 1-2.08 1.652 10 10 0 0 0-1.802-1.776l-.016-.013-.017-.011-.005-.003-.015-.01-.046-.035-.065-.049-.004-.003-.06-.045-.142-.105a2 2 0 0 0-.126-.085l-.03-.02a5 5 0 0 0-.24-.16 4 4 0 0 0-.254-.159l-.185-.106-.035-.02-.019-.01v-.001l-.017-.009-.007-.004-.03-.017-.03-.016-.004-.004-.017-.01a3 3 0 0 0-.163-.092l-.013-.007-.015-.008-.015-.007-.142-.068h-.001l-.055-.027a6.77 6.77 0 0 1 5.65 1.229m-7.428-.537a6.8 6.8 0 0 0-2.445 2.354 8.2 8.2 0 0 0 2.273.76h.004a8.3 8.3 0 0 0 4.299-.364 8.7 8.7 0 0 0-1.54-1.429l-.17-.127-.04-.028-.003-.002-.02-.01-.022-.016-.09-.061c-.059-.042-.106-.074-.155-.103l-.031-.019-.029-.021-.001-.001-.044-.028-.116-.07-.161-.093-.005-.003-.049-.027-.001-.001-.01-.006-.006-.003-.037-.02-.105-.062-.088-.05h-.002l-.144-.069-.289-.137-.008-.003-.035-.018c-.123-.057-.269-.112-.433-.174l-.11-.042a9 9 0 0 0-.317-.104zm-3.015 3.52a9.5 9.5 0 0 0 2.614.87 9.6 9.6 0 0 0 3.434-.002 9.3 9.3 0 0 0 1.879-.55q.404.672.675 1.407c-2.712.977-5.078 3.183-6.014 6.263A6.74 6.74 0 0 1 11.25 19c0-.832.15-1.63.426-2.365" clip-rule="evenodd"/></svg>
